X:429
T:Love is Little
C:Shaker hymn
L:1/4
M:4/4
S:Colin Hume's website,  colinhume.com  - chords can also be printed below the stave.
Q:1/4=100
N:4 beats to the bar.
%%MIDI ratio 3 1
%%MIDI gchord fHIHfHIH
%%MIDI program 73     Flute
%%MIDI bassprog 46    Orchestral Harp
%%MIDI chordprog 46   Orchestral Harp
K:F
P:A
|: "F"Ac "Bb"d<B | "F"Ac "C"G2 | "Bb"FB "Dm"AF | "Gm"G/F/D "C"C2 :|
P:B
|: "Dm"DF "C"G2 | "Bb"FB "Dm"A2 | "F"FG "Gm"G>A | "Bb"FD "C"C2 :|

